X:21
T:Soggy's
S:thesession.org
R:Slipjig
M:9/8
L:1/8
K:A
E2E cEB BAE | F2F BFA AFE | F2F BAB cef | a2f ecB BAF |
E2E cEB BAE | F2F B2c AFE | F2F BAB cef | a2f ecB A3 :|
|: D2D FGA AGF | G2G FGA BAG | A2e dec fBf | AGF EFG A3 |
D2D FGA AGF | G2G FGA BAG | Ace dec fBf | AGF EFG A3 :|


